X: 237
T: The Wedding of Lachlan McGraw
B: australian dance tunes
M:6/8
L:1/8
Q: 3/8=100
K:Em
V:1 
|:B2 B E>FG|B2 B E>FG|A2 A A>AA|A>GF E>FG|!
B>BB B>BB|B>AG F>GA|B>cB BAB|1 GEE E3:|2 GEE E2 B||!
E>ee e^de|f2 e ed^c|d2 B B>AB|d2 B Bcd|!
e2 e e^de|f2 e ed^c|d2 B B>AB|GEE E2 B|!
EEE G2 F|FDD D2 F|EEE ee2 d|d>BB B2 g|!
d>dd edc|cBA G2 A|B>BB BAB|G>FG E3||</PRE>
% abcbook-tune_id 62a07850370b9ac0da101771


% abcbook-boost 0
% abcbook-tablature 
% abcbook-transpose 
% abcbook-lastupdated 1654683750459
% abcbook-soundfonts 
% abcbook-repeats 1


